packages/dnb-eufemia/assets/icons/ambulance_medium.svg

<svg width="24" height="24" viewBox="0 0 24 24" fill="none" xmlns="http://www.w3.org/2000/svg">
<path d="M8.25 9.75C8.25 8.92157 8.92157 8.25 9.75 8.25H12M8.25 9.75H4.921C4.23284 9.75008 3.63299 10.2184 3.466 10.886L3 13.5C2.16517 14.0567 0.752443 14.6222 0.75 15.8V20.25C0.75 21.0784 1.42157 21.75 2.25 21.75H5.37803M8.25 9.75V18.878M15.75 12V14.25M15.75 16.5V14.25M15.75 14.25H13.5M15.75 14.25H18M14.25 2.25V0.75M18 3.75L18.75 2.25M10.5 3.75L9.75 2.25M5.37803 21.75C5.68691 22.6239 6.52034 23.25 7.5 23.25C8.47966 23.25 9.31309 22.6239 9.62197 21.75M5.37803 21.75C4.76073 20.0035 6.5527 18.2781 8.25 18.878M8.25 18.878C9.4064 19.2868 10.027 20.604 9.62197 21.75M9.62197 21.75H16.628M16.628 21.75C16.9369 22.6239 17.7703 23.25 18.75 23.25C19.7297 23.25 20.5631 22.6239 20.872 21.75M16.628 21.75C16.1256 20.3284 17.2173 18.75 18.75 18.75C19.9926 18.75 21 19.7574 21 21C21 21.263 20.9549 21.5154 20.872 21.75M20.872 21.75H21.75C22.5784 21.75 23.25 21.0784 23.25 20.25V9.75C23.25 8.92157 22.5784 8.25 21.75 8.25H16.5M12 8.25V7.5C12 6.25736 13.0074 5.25 14.25 5.25C15.4926 5.25 16.5 6.25736 16.5 7.5V8.25M12 8.25H16.5" stroke="black" stroke-width="1.5" stroke-linecap="round" stroke-linejoin="round"/>
</svg>

<svg width="24" height="24" viewBox="0 0 24 24" fill="none" xmlns="http://www.w3.org/2000/svg"><path d="M8.25 9.75a1.5 1.5 0 0 1 1.5-1.5H12m-3.75 1.5H4.921a1.5 1.5 0 0 0-1.455 1.136L3 13.5c-.835.557-2.248 1.122-2.25 2.3v4.45a1.5 1.5 0 0 0 1.5 1.5h3.128m2.872-12v9.128M15.75 12v2.25m0 2.25v-2.25m0 0H13.5m2.25 0H18m-3.75-12V.75m3.75 3 .75-1.5m-8.25 1.5-.75-1.5m-4.372 19.5a2.25 2.25 0 0 0 4.244 0m-4.244 0c-.617-1.747 1.175-3.472 2.872-2.872m0 0c1.156.409 1.777 1.726 1.372 2.872m0 0h7.006m0 0a2.251 2.251 0 0 0 4.244 0m-4.244 0c-.502-1.422.59-3 2.122-3a2.25 2.25 0 0 1 2.122 3m0 0h.878a1.5 1.5 0 0 0 1.5-1.5V9.75a1.5 1.5 0 0 0-1.5-1.5H16.5m-4.5 0V7.5a2.25 2.25 0 0 1 4.5 0v.75m-4.5 0h4.5" stroke="#000" stroke-width="1.5" stroke-linecap="round" stroke-linejoin="round"/></svg>
